assets/01_base/Base_11.svg

<svg xmlns="http://www.w3.org/2000/svg" width="500" height="500" fill="none" viewBox="0 0 500 500"><g clip-path="url(#a)"><g clip-path="url(#b)"><path fill="#df3b94" d="M48.547 427.819c55.399 55.344 145.214 55.344 200.614 0l.035-.035c.869.916 1.739 1.819 2.643 2.711 55.4 55.344 145.215 55.344 200.614.001s55.4-145.067 0-200.41a141 141 0 0 0-2.714-2.641l.035-.035L249.161 27 48.547 227.41c-55.4 55.343-55.4 145.066 0 200.409"/><path fill="#ff69ff" d="M74.232 376.514c48.302 48.253 126.626 48.253 174.928 0l.036-.036a85 85 0 0 0 2.303 2.36c48.303 48.253 126.626 48.253 174.929 0s48.303-126.497 0-174.751c-.776-.775-1.563-1.55-2.362-2.301l.035-.035L249.172 27 74.243 201.751c-48.303 48.254-48.303 126.497 0 174.751z"/><path fill="#ffcffe" d="M101.596 321.828c40.748 40.706 106.817 40.706 147.564 0l.024-.024c.634.669 1.281 1.338 1.939 1.996 40.747 40.706 106.816 40.706 147.564 0s40.748-106.708 0-147.414a101 101 0 0 0-1.998-1.937l.024-.023L249.149 27.012 101.585 174.426c-40.748 40.706-40.748 106.707 0 147.413z"/></g></g><defs><clipPath id="a"><path fill="#fff" d="M0 0h500v500H0z"/></clipPath><clipPath id="b"><path fill="#fff" d="M494 472H7V27h487z"/></clipPath></defs></svg>

<svg width="500" height="500" viewBox="0 0 500 500" fill="none" xmlns="http://www.w3.org/2000/svg">
<g clip-path="url(#clip0_70_100)">
<g clip-path="url(#clip1_70_100)">
<path d="M48.5468 427.819C103.946 483.163 193.761 483.163 249.161 427.819L249.196 427.784C250.065 428.7 250.935 429.603 251.839 430.495C307.239 485.839 397.054 485.839 452.453 430.496C507.853 375.152 507.853 285.429 452.453 230.086C451.56 229.194 450.656 228.313 449.739 227.445L449.774 227.41L249.161 27.0001L48.5468 227.41C-6.85283 282.753 -6.85284 372.476 48.5468 427.819Z" fill="#DF3B94"/>
<path d="M74.2315 376.514C122.534 424.767 200.858 424.767 249.16 376.514L249.196 376.478C249.948 377.277 250.711 378.063 251.499 378.838C299.802 427.091 378.125 427.091 426.428 378.838C474.731 330.584 474.731 252.341 426.428 204.087C425.652 203.312 424.865 202.537 424.066 201.786L424.101 201.751L249.172 27L74.2433 201.751C25.9404 250.005 25.9404 328.248 74.2433 376.502L74.2315 376.514Z" fill="#FF69FF"/>
<path d="M101.596 321.828C142.344 362.534 208.413 362.534 249.16 321.828L249.184 321.804C249.818 322.473 250.465 323.142 251.123 323.8C291.87 364.506 357.939 364.506 398.687 323.8C439.435 283.093 439.435 217.092 398.687 176.386C398.029 175.728 397.359 175.083 396.689 174.449L396.713 174.426L249.149 27.0117L101.585 174.426C60.8369 215.132 60.8369 281.133 101.585 321.839L101.596 321.828Z" fill="#FFCFFE"/>
</g>
</g>
<defs>
<clipPath id="clip0_70_100">
<rect width="500" height="500" fill="white"/>
</clipPath>
<clipPath id="clip1_70_100">
<rect width="487" height="445" fill="white" transform="translate(494 472) rotate(-180)"/>
</clipPath>
</defs>
</svg>
